data/chains/V2/cardano/cardano.branded.svg

<svg width="24" height="24" viewBox="0 0 24 24" fill="none" xmlns="http://www.w3.org/2000/svg">
<path d="M11.7597 3.16565C12.1953 2.94268 12.732 3.45086 12.4961 3.87736C12.369 4.21571 11.8609 4.30516 11.586 4.04589C11.3138 3.79699 11.4045 3.29918 11.7675 3.15658L11.7597 3.16565ZM7.07466 3.65439C7.3469 3.54808 7.67358 3.78013 7.64766 4.05626C7.67358 4.35831 7.29245 4.58907 7.02021 4.43739C6.66501 4.30516 6.70909 3.74383 7.07466 3.65439ZM16.6808 4.44776C16.2633 4.39332 16.1985 3.77106 16.59 3.64661C16.9089 3.50401 17.1902 3.77106 17.2369 4.05626C17.1721 4.29609 16.9647 4.51906 16.6808 4.44776ZM8.13769 5.56912C8.58364 5.30207 9.21237 5.70135 9.13978 6.19138C9.12163 6.69956 8.43974 6.99253 8.04694 6.65418C7.66581 6.38713 7.72933 5.77265 8.13769 5.56912ZM14.8982 5.8621C15.0979 5.37337 15.899 5.35522 16.1259 5.8271C16.345 6.20045 16.0715 6.66326 15.6722 6.78771C15.1536 6.87716 14.6532 6.34305 14.8982 5.8621ZM11.1958 6.75271C11.1958 6.33398 11.5951 6.02285 12.0138 5.99563C12.2861 6.04878 12.5881 6.16416 12.7061 6.4325C12.9239 6.79678 12.732 7.30366 12.3327 7.48256C12.1512 7.57072 11.9322 7.53442 11.7325 7.52664C11.4318 7.38404 11.1777 7.09884 11.1958 6.76178V6.75271ZM4.22654 7.37496C4.62712 7.13513 5.17289 7.57201 5.01732 7.99852C4.93565 8.35372 4.42618 8.5054 4.13579 8.27464C3.82596 8.05167 3.87134 7.52664 4.22654 7.37496ZM19.2009 7.37496C19.547 7.10921 20.1109 7.41126 20.0656 7.82092C20.0928 8.20334 19.6118 8.49762 19.2657 8.30057C18.8924 8.13204 18.8457 7.58886 19.2009 7.37496ZM13.1598 8.13204C13.445 8.04 13.7497 8.0413 14.0336 8.13593C14.3162 8.23057 14.5599 8.41335 14.7258 8.65707C15.1446 9.24433 14.9255 10.1518 14.2617 10.4902C13.5785 10.8998 12.5777 10.5524 12.3237 9.82255C12.0333 9.16395 12.4507 8.33687 13.1611 8.13204M9.84111 8.19427C10.4686 7.90907 11.3151 8.15019 11.6145 8.76467C11.9788 9.36878 11.6975 10.2063 11.061 10.5174C10.4232 10.8726 9.51313 10.6056 9.21367 9.95607C8.85847 9.33378 9.1683 8.47817 9.84111 8.19427ZM6.51204 9.2884C6.55741 8.8982 6.93984 8.648 7.33005 8.62207C7.52713 8.64 7.71219 8.72469 7.85458 8.86213C7.99698 8.99957 8.08816 9.18152 8.11305 9.37785C8.08453 9.77847 7.76692 10.179 7.33005 10.179C6.83743 10.2153 6.42 9.74217 6.51204 9.2884ZM16.3372 8.70115C16.8376 8.43539 17.5195 8.83467 17.5014 9.37785C17.5377 9.96515 16.7741 10.3761 16.2828 10.0364C15.7642 9.75125 15.8005 8.95135 16.3372 8.70115ZM8.48511 10.7572C8.7755 10.6833 9.08144 10.7041 9.35757 10.8169C9.63369 10.9283 9.86315 11.128 10.0135 11.3808C10.1655 11.6421 10.2187 11.9491 10.1638 12.2464C10.1088 12.5436 9.94936 12.8115 9.71407 13.0012C9.09441 13.5613 7.94841 13.3305 7.62173 12.5734C7.2393 11.8786 7.69433 10.9439 8.48511 10.7572ZM14.7907 10.7572C15.3546 10.5978 16.0183 10.8104 16.3191 11.3017C16.7287 11.8695 16.5278 12.7251 15.9366 13.0803C15.3001 13.5081 14.3356 13.2851 13.9895 12.6175C13.5708 11.933 13.9895 10.9621 14.7907 10.7482V10.7572ZM4.73731 11.3899C5.23771 11.2123 5.79255 11.7451 5.59291 12.226C5.46457 12.6629 4.82806 12.8223 4.50137 12.4931C4.10987 12.1988 4.25506 11.5234 4.73731 11.3899ZM18.357 12.0925C18.3523 11.9947 18.3672 11.8971 18.4005 11.8052C18.4338 11.7133 18.4852 11.629 18.5514 11.5571C18.6875 11.4102 18.8752 11.3214 19.0751 11.3095C19.4122 11.3626 19.7493 11.6297 19.722 11.9953C19.757 12.4671 19.1568 12.7964 18.7381 12.5657C18.5385 12.4749 18.4399 12.2805 18.357 12.0925ZM2.26254 11.6297C2.57237 11.5052 2.94573 11.7541 2.87183 12.0743C2.85369 12.4399 2.29884 12.5825 2.09012 12.2805C1.90863 12.0666 2.01753 11.7451 2.27162 11.6297H2.26254ZM21.3231 11.6297C21.5408 11.4793 21.8766 11.5778 21.9583 11.8164C22.1048 12.0834 21.8416 12.4399 21.5408 12.3945C21.113 12.4308 20.9678 11.8073 21.3231 11.6206V11.6297ZM10.1224 13.3746C10.9145 13.1788 11.7688 13.8193 11.7792 14.6023C11.8246 15.4034 10.9884 16.1164 10.1691 15.9297C9.85991 15.8754 9.57925 15.7149 9.37572 15.476C9.17496 15.2398 9.0655 14.9394 9.06718 14.6295C9.06718 14.05 9.5235 13.499 10.1237 13.3837L10.1224 13.3746ZM13.2713 13.3746C14.0802 13.1607 14.954 13.8102 14.9449 14.6204C14.9903 15.3943 14.1723 16.0801 13.3711 15.9207C12.6257 15.8312 12.0696 15.0391 12.2796 14.3352C12.3885 13.8724 12.7891 13.49 13.2713 13.3746ZM7.19393 13.8633C7.75785 13.7739 8.28547 14.3715 8.04953 14.8784C7.88489 15.4216 7.06559 15.5732 6.70131 15.1273C6.27351 14.6995 6.59371 13.9165 7.19393 13.8633ZM16.437 13.8906C16.9284 13.6857 17.5467 14.1045 17.5014 14.6204C17.5286 15.1908 16.7741 15.5914 16.2828 15.2517C15.737 14.9497 15.8277 14.0695 16.437 13.8906ZM19.0116 16.3835C18.8211 16.027 19.175 15.5642 19.5755 15.6264C19.7765 15.6264 19.9217 15.7781 20.0487 15.9116C20.0759 16.1164 20.1213 16.3562 19.9398 16.5248C19.6935 16.819 19.149 16.7309 19.0116 16.3835ZM4.21876 15.7223C4.59212 15.4825 5.12881 15.8468 5.04585 16.2668C5.00177 16.6492 4.50915 16.8631 4.19024 16.6492C3.84541 16.4522 3.85319 15.9012 4.21876 15.7223ZM11.6703 16.5144C12.1616 16.3005 12.7891 16.7192 12.7437 17.2365C12.78 17.8134 12.006 18.2152 11.5251 17.8678C10.978 17.5735 11.0688 16.6933 11.6703 16.5144ZM8.21287 17.2896C8.64068 17.0757 9.2046 17.4413 9.15922 17.895C9.17737 18.2684 8.79494 18.5886 8.42159 18.5264C8.10398 18.5264 7.89397 18.2502 7.79415 17.9923C7.79415 17.7071 7.92249 17.3959 8.22195 17.2806L8.21287 17.2896ZM15.2185 17.2896C15.6463 17.0304 16.2555 17.4063 16.218 17.886C16.227 18.4019 15.5361 18.7221 15.1264 18.3928C15.0386 18.327 14.969 18.24 14.924 18.1399C14.8791 18.0398 14.8603 17.93 14.8693 17.8206C14.8784 17.7113 14.9151 17.6061 14.9759 17.5148C15.0367 17.4235 15.1198 17.3491 15.2172 17.2987L15.2185 17.2896ZM16.428 20.1818C16.2374 19.9148 16.4643 19.5674 16.7741 19.5064C17.0282 19.5583 17.2926 19.7372 17.2278 20.012C17.2019 20.3957 16.6276 20.5111 16.428 20.1909V20.1818ZM6.7752 19.942C6.8478 19.7203 7.02929 19.4973 7.30282 19.5583C7.7034 19.5855 7.82137 20.1637 7.47524 20.3426C7.15763 20.537 6.80243 20.2622 6.7752 19.942ZM11.4331 20.2C11.5057 19.8707 11.9516 19.7112 12.2433 19.8889C12.4248 19.9692 12.4896 20.1741 12.5337 20.3517L12.4611 20.6174C12.3431 20.76 12.1888 20.8935 11.997 20.8845C11.6249 20.9298 11.2879 20.5293 11.4331 20.2Z" fill="#246DD3"/>
</svg>

<svg xmlns="http://www.w3.org/2000/svg" width="24" height="24" fill="none" viewBox="0 0 24 24">
    <path fill="#246DD3" d="M11.76 3.166c.435-.223.972.285.736.711-.127.339-.635.428-.91.169-.272-.249-.181-.747.181-.89zm-4.685.488c.272-.106.599.126.573.402.026.302-.356.533-.628.381-.355-.132-.31-.693.055-.783m9.606.794c-.418-.055-.483-.677-.091-.801.319-.143.6.124.647.41-.065.24-.272.462-.556.39M8.138 5.569c.446-.267 1.074.132 1.002.622-.018.509-.7.802-1.093.463-.381-.267-.318-.881.09-1.085m6.76.293c.2-.489 1.001-.507 1.228-.035.219.373-.055.836-.454.96-.518.09-1.019-.444-.774-.925m-3.702.89c0-.418.4-.73.818-.756.272.053.574.168.692.436.218.365.026.872-.373 1.05-.182.089-.4.052-.6.045-.301-.143-.555-.428-.537-.765zm-6.97.623c.401-.24.947.197.791.624-.081.355-.59.506-.881.276-.31-.223-.265-.748.09-.9m14.975 0c.346-.266.91.036.865.446.027.382-.454.677-.8.48-.374-.169-.42-.712-.065-.926m-6.041.757c.285-.092.59-.09.874.004.282.095.526.277.692.521.419.587.2 1.495-.464 1.833-.684.41-1.684.062-1.938-.667-.29-.66.127-1.486.837-1.691m-3.32.062c.628-.285 1.474-.044 1.774.57.364.605.082 1.442-.554 1.753-.638.356-1.548.089-1.847-.56-.356-.623-.046-1.479.627-1.763M6.512 9.288c.045-.39.428-.64.818-.666a.87.87 0 0 1 .783.756c-.028.4-.346.801-.783.801-.493.036-.91-.437-.818-.89m9.825-.587c.5-.266 1.183.134 1.164.677.037.587-.727.998-1.218.658-.519-.285-.483-1.085.054-1.335m-7.852 2.056c.29-.074.596-.053.873.06.276.111.505.311.656.564a1.264 1.264 0 0 1-.3 1.62c-.62.56-1.766.33-2.092-.428-.383-.694.072-1.63.863-1.816m6.306 0c.564-.16 1.227.053 1.528.545.41.568.209 1.423-.382 1.778-.637.428-1.601.205-1.947-.463-.42-.684 0-1.655.8-1.869zm-10.054.633c.5-.178 1.056.355.856.836-.128.437-.765.596-1.092.267-.391-.294-.246-.97.236-1.103m13.62.702a.74.74 0 0 1 .194-.535.78.78 0 0 1 .524-.248c.337.054.674.32.647.686.035.472-.565.801-.984.57-.2-.09-.298-.284-.381-.473M2.263 11.63c.31-.125.683.124.609.444-.018.366-.573.508-.782.207-.181-.214-.072-.536.182-.651zm19.06 0c.218-.15.554-.052.635.186.147.267-.116.624-.417.579-.428.036-.573-.588-.218-.774zm-11.2 1.745c.792-.196 1.646.444 1.656 1.227.046.801-.79 1.514-1.61 1.328a1.35 1.35 0 0 1-.793-.454 1.3 1.3 0 0 1-.309-.847c0-.579.457-1.13 1.057-1.245zm3.148 0c.81-.214 1.683.435 1.674 1.245.045.774-.773 1.46-1.574 1.3-.745-.089-1.301-.88-1.091-1.585.109-.463.51-.845.991-.96m-6.077.488c.564-.09 1.091.508.856 1.015-.165.544-.984.695-1.349.25-.427-.428-.107-1.212.493-1.265m9.243.028c.491-.205 1.11.213 1.064.73.028.57-.727.97-1.218.63-.546-.301-.455-1.181.154-1.36m2.575 2.493c-.19-.357.163-.82.564-.758.2 0 .346.152.473.286.027.204.072.444-.11.613-.245.294-.79.206-.927-.141m-14.793-.662c.373-.24.91.125.827.545-.044.382-.537.596-.856.382-.345-.197-.337-.748.029-.927m7.451.792c.492-.213 1.12.205 1.074.723.036.576-.738.978-1.219.63-.547-.294-.456-1.174.145-1.353m-3.457.776c.428-.214.992.151.946.605.018.373-.364.694-.737.631-.318 0-.528-.276-.628-.534 0-.285.128-.596.428-.711zm7.006 0c.427-.26 1.037.116.999.596.009.516-.682.836-1.092.507a.648.648 0 0 1 .091-1.094zm1.209 2.892c-.19-.267.036-.615.346-.676.254.052.519.231.454.506-.026.384-.6.5-.8.179zm-9.653-.24c.073-.222.254-.445.528-.384.4.027.518.606.172.785-.317.194-.673-.08-.7-.401m4.658.258c.073-.33.519-.489.81-.311.182.08.247.285.29.463l-.072.265c-.118.143-.272.276-.464.267-.372.046-.71-.355-.564-.684"/>
</svg>
